X: 18258
T: Humours Of Loughrea, The
R: reel
M: 4/4
K: Gmajor
G2GA BAA2|bgag egdB|G2GA BAGE|ABAG E2D2|
G2GA BAA2|bgga gedB|G2GA BAGE|ABAG e2d2||
gfeg fdBd|g2e2 gaba|gee2 fdBd|eaag edef|
g2eg fdBd|g2e2 gaba|g2ge a2ag|dgbg efge||
"2ndtime 1st bar" d2GA BAA2|

